packages/kaspersky-hexa-ui-icons/src/iconsSVGs/64x42/FlagGe.svg

<svg width="64" height="42" viewBox="0 0 64 42" fill="none" xmlns="http://www.w3.org/2000/svg">
<g clip-path="url(#clip0_41916_224)">
<rect width="64" height="42" rx="5" fill="white"/>
<rect x="0.5" y="0.5" width="63" height="41" rx="4.5" fill="white" stroke="#F5F5F5"/>
<rect x="27.6489" y="-0.806007" width="8.70215" height="43.612" fill="#FF0000"/>
<rect x="67.2244" y="16.6489" width="8.70215" height="73.6725" transform="rotate(90 67.2244 16.6489)" fill="#FF0000"/>
<path d="M15.1904 5.67857C15.0805 6.33491 15.0054 6.99574 14.9658 7.65806C15.6285 7.61853 16.2896 7.54443 16.9463 7.43443L18.3242 7.20396C18.0778 8.23659 18.0778 9.31292 18.3242 10.3456L16.9463 10.1141C16.2896 10.0041 15.6285 9.93 14.9658 9.89048C15.0053 10.5531 15.0804 11.2143 15.1904 11.8709L15.4209 13.2489C14.3883 13.0025 13.3119 13.0025 12.2793 13.2489L12.5107 11.8709C12.6207 11.2143 12.6939 10.5531 12.7334 9.89048C12.0711 9.93002 11.4102 10.0042 10.7539 10.1141L9.37598 10.3456C9.62236 9.31292 9.62236 8.23659 9.37598 7.20396L10.7539 7.43443C11.4102 7.54437 12.0711 7.61852 12.7334 7.65806C12.6939 6.99576 12.6207 6.33489 12.5107 5.67857L12.2793 4.30064C13.3119 4.54702 14.3883 4.54702 15.4209 4.30064L15.1904 5.67857Z" fill="#FF0000"/>
<path d="M51.4905 5.67857C51.3805 6.33491 51.3054 6.99574 51.2659 7.65806C51.9285 7.61853 52.5897 7.54443 53.2463 7.43443L54.6243 7.20396C54.3779 8.23659 54.3779 9.31292 54.6243 10.3456L53.2463 10.1141C52.5897 10.0041 51.9285 9.93 51.2659 9.89048C51.3054 10.5531 51.3805 11.2143 51.4905 11.8709L51.7209 13.2489C50.6883 13.0025 49.612 13.0025 48.5793 13.2489L48.8108 11.8709C48.9208 11.2143 48.9939 10.5531 49.0334 9.89048C48.3712 9.93002 47.7103 10.0042 47.054 10.1141L45.676 10.3456C45.9224 9.31292 45.9224 8.23659 45.676 7.20396L47.054 7.43443C47.7102 7.54437 48.3712 7.61852 49.0334 7.65806C48.9939 6.99576 48.9207 6.33489 48.8108 5.67857L48.5793 4.30064C49.612 4.54702 50.6883 4.54702 51.7209 4.30064L51.4905 5.67857Z" fill="#FF0000"/>
<path d="M15.1904 30.1292C15.0805 30.7856 15.0054 31.4464 14.9658 32.1087C15.6285 32.0692 16.2896 31.9951 16.9463 31.8851L18.3242 31.6546C18.0778 32.6873 18.0778 33.7636 18.3242 34.7962L16.9463 34.5648C16.2896 34.4548 15.6285 34.3807 14.9658 34.3411C15.0053 35.0038 15.0804 35.665 15.1904 36.3216L15.4209 37.6995C14.3883 37.4532 13.3119 37.4532 12.2793 37.6995L12.5107 36.3216C12.6207 35.665 12.6939 35.0037 12.7334 34.3411C12.0711 34.3807 11.4102 34.4548 10.7539 34.5648L9.37598 34.7962C9.62236 33.7636 9.62236 32.6873 9.37598 31.6546L10.7539 31.8851C11.4102 31.995 12.0711 32.0692 12.7334 32.1087C12.6939 31.4464 12.6207 30.7856 12.5107 30.1292L12.2793 28.7513C13.3119 28.9977 14.3883 28.9977 15.4209 28.7513L15.1904 30.1292Z" fill="#FF0000"/>
<path d="M51.4905 30.1292C51.3805 30.7856 51.3054 31.4464 51.2659 32.1087C51.9285 32.0692 52.5897 31.9951 53.2463 31.8851L54.6243 31.6546C54.3779 32.6873 54.3779 33.7636 54.6243 34.7962L53.2463 34.5648C52.5897 34.4548 51.9285 34.3807 51.2659 34.3411C51.3054 35.0038 51.3805 35.665 51.4905 36.3216L51.7209 37.6995C50.6883 37.4532 49.612 37.4532 48.5793 37.6995L48.8108 36.3216C48.9208 35.665 48.9939 35.0037 49.0334 34.3411C48.3712 34.3807 47.7103 34.4548 47.054 34.5648L45.676 34.7962C45.9224 33.7636 45.9224 32.6873 45.676 31.6546L47.054 31.8851C47.7102 31.995 48.3712 32.0692 49.0334 32.1087C48.9939 31.4464 48.9207 30.7856 48.8108 30.1292L48.5793 28.7513C49.612 28.9977 50.6883 28.9977 51.7209 28.7513L51.4905 30.1292Z" fill="#FF0000"/>
</g>
<defs>
<clipPath id="clip0_41916_224">
<rect width="64" height="42" rx="5" fill="white"/>
</clipPath>
</defs>
</svg>

<svg xmlns="http://www.w3.org/2000/svg" width="64" height="42" fill="none" viewBox="0 0 64 42"><g clip-path="url(#a)"><rect width="64" height="42" fill="#fff" rx="5"/><rect width="63" height="41" x="1" y="1" fill="#fff" stroke="#f5f5f5" rx="5"/><path fill="red" d="M27.6489-.806h8.7021v43.612h-8.7021z"/><path fill="red" d="M67.224 16.649v8.702H-6.448v-8.702zM15.19 5.679a18.8 18.8 0 0 0-.225 1.98 18.7 18.7 0 0 0 1.981-.224l1.378-.23a6.77 6.77 0 0 0 0 3.142l-1.378-.231a18.7 18.7 0 0 0-1.98-.224c.04.663.115 1.324.225 1.98l.231 1.378a6.77 6.77 0 0 0-3.142 0l.231-1.378c.11-.657.183-1.318.223-1.98a18.8 18.8 0 0 0-1.979.224l-1.378.232a6.77 6.77 0 0 0 0-3.142l1.378.23c.656.11 1.317.184 1.98.224a18.7 18.7 0 0 0-.223-1.979l-.231-1.378a6.77 6.77 0 0 0 3.142 0zm36.301 0a18.7 18.7 0 0 0-.225 1.98 18.7 18.7 0 0 0 1.98-.224l1.378-.23a6.77 6.77 0 0 0 0 3.142l-1.378-.231a18.7 18.7 0 0 0-1.98-.224c.04.663.115 1.324.225 1.98l.23 1.378a6.77 6.77 0 0 0-3.142 0l.232-1.378c.11-.657.183-1.318.223-1.98a18.8 18.8 0 0 0-1.979.224l-1.378.232a6.77 6.77 0 0 0 0-3.142l1.378.23c.656.11 1.317.184 1.979.224a18.7 18.7 0 0 0-.223-1.979l-.231-1.378a6.77 6.77 0 0 0 3.142 0zM15.19 30.129a18.8 18.8 0 0 0-.225 1.98 18.7 18.7 0 0 0 1.981-.224l1.378-.23a6.77 6.77 0 0 0 0 3.142l-1.378-.231a18.8 18.8 0 0 0-1.98-.224 18.7 18.7 0 0 0 .225 1.981l.231 1.378a6.77 6.77 0 0 0-3.142 0l.231-1.378c.11-.657.183-1.318.223-1.98a18.7 18.7 0 0 0-1.979.224l-1.378.231a6.77 6.77 0 0 0 0-3.142l1.378.231a18.7 18.7 0 0 0 1.98.224 18.7 18.7 0 0 0-.223-1.979l-.231-1.378a6.77 6.77 0 0 0 3.142 0zm36.301 0a18.7 18.7 0 0 0-.225 1.98 18.7 18.7 0 0 0 1.98-.224l1.378-.23a6.77 6.77 0 0 0 0 3.142l-1.378-.231a18.8 18.8 0 0 0-1.98-.224 18.7 18.7 0 0 0 .225 1.981l.23 1.378a6.77 6.77 0 0 0-3.142 0l.232-1.378c.11-.657.183-1.318.223-1.98a18.7 18.7 0 0 0-1.979.224l-1.378.231a6.77 6.77 0 0 0 0-3.142l1.378.231a18.7 18.7 0 0 0 1.979.224 18.7 18.7 0 0 0-.223-1.979l-.231-1.378a6.77 6.77 0 0 0 3.142 0z"/></g><defs><clipPath id="a"><rect width="64" height="42" fill="#fff" rx="5"/></clipPath></defs></svg>
